lib/brands/icons/apple-music.svg

<svg xmlns="http://www.w3.org/2000/svg" fill="none" aria-hidden="true" viewBox="0 0 48 48"><g id="apple-music-Icon"><ellipse id="bg" cx="24" cy="24.0232" fill="url(#paint0_linear_94_17187)" rx="19.1416" ry="19.1648"/><g id="apple_music"><path fill="url(#paint1_radial_94_17187)" d="M19.7327 12.7659L32.3443 10.2594C32.919 10.1452 33.4546 10.5849 33.4546 11.1708V30.4941C33.4546 32.1391 32.3043 33.56 30.6953 33.9024L29.5811 34.1394C27.6402 34.5524 25.8119 33.0722 25.8119 31.0878C25.8119 29.69 26.7541 28.4678 28.106 28.112L31.2638 27.281C31.6924 27.1682 31.9911 26.7807 31.9911 26.3375V17.3659C31.9911 16.9534 31.6122 16.6451 31.2083 16.7291L20.6989 18.9134C20.3756 18.9806 20.1438 19.2655 20.1438 19.5957V32.9933C20.1438 34.7927 18.8848 36.3467 17.1246 36.7201L16.3606 36.8821C14.3607 37.3064 12.4779 35.781 12.4779 33.7367C12.4779 32.4338 13.3548 31.294 14.6142 30.9601L17.9196 30.0837C18.327 29.9757 18.6106 29.607 18.6106 29.1855V14.133C18.6106 13.468 19.0804 12.8956 19.7327 12.7659Z"/><path fill="url(#paint2_radial_94_17187)" fill-rule="evenodd" d="M45 24C45 35.598 35.598 45 24 45C12.402 45 3 35.598 3 24C3 12.402 12.402 3 24 3C35.598 3 45 12.402 45 24ZM43.1416 24.0232C43.1416 34.6077 34.5716 43.1881 24 43.1881C13.4284 43.1881 4.85841 34.6077 4.85841 24.0232C4.85841 13.4388 13.4284 4.85841 24 4.85841C34.5716 4.85841 43.1416 13.4388 43.1416 24.0232Z" clip-rule="evenodd"/></g></g><defs><linearGradient id="paint0_linear_94_17187" x1="24" x2="24" y1="4.8584" y2="43.188" gradientUnits="userSpaceOnUse"><stop stop-color="white"/><stop offset="1" stop-color="#DDE2E7"/></linearGradient><radialGradient id="paint1_radial_94_17187" cx="0" cy="0" r="1" gradientTransform="matrix(24.01996 -34.47346 27.0717 18.86266 12.478 41.608)" gradientUnits="userSpaceOnUse"><stop stop-color="#7A66FB"/><stop offset="0.440198" stop-color="#52A2F4"/><stop offset="0.702" stop-color="#FC5D6D"/><stop offset="1" stop-color="#E85E7B"/></radialGradient><radialGradient id="paint2_radial_94_17187" cx="0" cy="0" r="1" gradientTransform="matrix(24.01996 -34.47346 27.0717 18.86266 12.478 41.608)" gradientUnits="userSpaceOnUse"><stop stop-color="#7A66FB"/><stop offset="0.440198" stop-color="#52A2F4"/><stop offset="0.702" stop-color="#FC5D6D"/><stop offset="1" stop-color="#E85E7B"/></radialGradient></defs></svg>

<svg xmlns="http://www.w3.org/2000/svg" fill="none" aria-hidden="true" viewBox="0 0 48 48"><ellipse cx="24" cy="24.023" fill="url(#a)" rx="19.142" ry="19.165"/><path fill="url(#b)" d="m19.733 12.766 12.611-2.507a.93.93 0 0 1 1.11.912v19.323a3.485 3.485 0 0 1-2.759 3.408l-1.114.237a3.12 3.12 0 0 1-3.77-3.051c0-1.398.943-2.62 2.295-2.976l3.158-.831a.976.976 0 0 0 .727-.944v-8.971a.65.65 0 0 0-.783-.637l-10.51 2.184a.697.697 0 0 0-.554.683v13.397a3.81 3.81 0 0 1-3.02 3.727l-.763.162a3.215 3.215 0 0 1-3.883-3.145c0-1.303.877-2.443 2.136-2.777l3.306-.876a.93.93 0 0 0 .69-.898V14.133c0-.665.47-1.237 1.123-1.367Z"/><path fill="url(#c)" fill-rule="evenodd" d="M45 24c0 11.598-9.402 21-21 21S3 35.598 3 24 12.402 3 24 3s21 9.402 21 21Zm-1.858.023c0 10.585-8.57 19.165-19.142 19.165S4.858 34.608 4.858 24.023C4.858 13.44 13.428 4.858 24 4.858s19.142 8.58 19.142 19.165Z" clip-rule="evenodd"/><defs><radialGradient id="b" cx="0" cy="0" r="1" gradientTransform="matrix(24.01996 -34.47346 27.0717 18.86266 12.478 41.608)" gradientUnits="userSpaceOnUse"><stop stop-color="#7A66FB"/><stop offset=".44" stop-color="#52A2F4"/><stop offset=".702" stop-color="#FC5D6D"/><stop offset="1" stop-color="#E85E7B"/></radialGradient><radialGradient id="c" cx="0" cy="0" r="1" gradientTransform="matrix(24.01996 -34.47346 27.0717 18.86266 12.478 41.608)" gradientUnits="userSpaceOnUse"><stop stop-color="#7A66FB"/><stop offset=".44" stop-color="#52A2F4"/><stop offset=".702" stop-color="#FC5D6D"/><stop offset="1" stop-color="#E85E7B"/></radialGradient><linearGradient id="a" x1="24" x2="24" y1="4.858" y2="43.188" gradientUnits="userSpaceOnUse"><stop stop-color="#fff"/><stop offset="1" stop-color="#DDE2E7"/></linearGradient></defs></svg>
